cssgg/play-backwards.svg

<svg
  width="24"
  height="24"
  viewBox="0 0 24 24"
  fill="none"
  xmlns="http://www.w3.org/2000/svg"
>
  <path d="M2 7H5V17H2V7Z" fill="currentColor" />
  <path d="M6 12L13.0023 7.00003V17L6 12Z" fill="currentColor" />
  <path d="M21.0023 7.00003L14 12L21.0023 17V7.00003Z" fill="currentColor" />
</svg>

<svg viewBox="0 0 24 24" xmlns="http://www.w3.org/2000/svg"><g><path d="M2 7h3v10H2V7Z"/><path d="M6 12l7-5v9.99l-7.01-5Z"/><path d="M21 7l-7.01 4.99 7 5v-10Z"/></g></svg>
